apex/img/step-item-icon4.svg

<svg width="111" height="109" viewBox="0 0 111 109" fill="none" xmlns="http://www.w3.org/2000/svg">
<path d="M6.88661 26.5174C6.6508 22.9543 9.34833 19.8745 12.9117 19.6387C13.1959 19.62 13.4811 19.62 13.7653 19.6387H98.3391L90.4285 27.5148L95.278 32.3643L109.035 18.6069C110.369 17.2653 110.369 15.099 109.035 13.7574L95.278 0L90.4285 4.88388L98.3391 12.76H13.7653C6.37931 12.5481 0.219853 18.3638 0.00790228 25.7498C0.000593649 26.0056 0.000593649 26.2616 0.00790228 26.5174V50.5929H6.88661V26.5174Z" fill="#E5A132"/>
<path d="M103.184 57.4714V81.5469C103.419 85.1101 100.722 88.1898 97.1584 88.4256C96.8743 88.4443 96.589 88.4443 96.3048 88.4256H11.731L19.6071 80.5495L14.7576 75.6656L1.00021 89.423C-0.333403 90.7646 -0.333403 92.931 1.00021 94.2725L14.7576 108.03L19.6071 103.18L11.731 95.3043H96.3048C103.691 95.5163 109.85 89.7006 110.062 82.3145C110.07 82.0587 110.07 81.8027 110.062 81.5469V57.4714H103.184Z" fill="#E5A132"/>
<path d="M50.9454 55.028V63.92C50.9454 64.64 50.5854 65 49.8654 65H47.7054C46.9854 65 46.6254 64.64 46.6254 63.92V40.088C46.6254 39.368 46.9854 39.008 47.7054 39.008H60.2334C61.6734 39.008 62.6934 39.26 63.2934 39.764C63.8934 40.268 64.1934 41.288 64.1934 42.824V51.212C64.1934 52.748 63.8934 53.768 63.2934 54.272C62.6934 54.776 61.6734 55.028 60.2334 55.028H50.9454ZM58.7574 50.888C59.2614 50.888 59.5734 50.84 59.6934 50.744C59.8134 50.648 59.8734 50.348 59.8734 49.844V44.228C59.8734 43.724 59.8014 43.424 59.6574 43.328C59.5374 43.208 59.2374 43.148 58.7574 43.148H50.9454V50.888H58.7574Z" fill="#E5A132"/>
</svg>

<svg width="111" height="109" fill="none" xmlns="http://www.w3.org/2000/svg"><path d="M6.887 26.517a6.466 6.466 0 016.878-6.878H98.34l-7.91 7.876 4.849 4.85 13.757-13.758a3.438 3.438 0 000-4.85L95.278 0l-4.85 4.884 7.911 7.876H13.765C6.38 12.548.22 18.364.008 25.75a13.44 13.44 0 000 .767v24.076h6.879V26.517zm96.297 30.954v24.076a6.467 6.467 0 01-6.88 6.879H11.732l7.876-7.877-4.85-4.883L1 89.423a3.44 3.44 0 000 4.85l13.758 13.757 4.85-4.85-7.877-7.876h84.574c7.386.212 13.545-5.603 13.757-12.99.008-.255.008-.511 0-.767V57.47h-6.878z" fill="#E5A132"/><path d="M50.945 55.028v8.892c0 .72-.36 1.08-1.08 1.08h-2.16c-.72 0-1.08-.36-1.08-1.08V40.088c0-.72.36-1.08 1.08-1.08h12.528c1.44 0 2.46.252 3.06.756.6.504.9 1.524.9 3.06v8.388c0 1.536-.3 2.556-.9 3.06-.6.504-1.62.756-3.06.756h-9.288zm7.812-4.14c.504 0 .816-.048.936-.144.12-.096.18-.396.18-.9v-5.616c0-.504-.072-.804-.216-.9-.12-.12-.42-.18-.9-.18h-7.812v7.74h7.812z" fill="#E5A132"/></svg>
